static/assets/img/icons/theme/devices/homepod.svg

<svg height="24" viewBox="0 0 24 24" width="24" xmlns="http://www.w3.org/2000/svg"><g fill="none" fill-rule="evenodd"><path d="m0 0h24v24h-24z" opacity="0"/><g fill="#000"><path d="m17.9284376 4.46474822c1.2689616 1.10013302 2.0715624 2.72396366 2.0715624 4.53525178v7c0 3.3137085-2.6862915 6-6 6h-4c-3.3137085 0-6-2.6862915-6-6v-7c0-1.81128812.80260084-3.43511876 2.07156236-4.53525178.44671036 1.43616205 2.93086784 2.53525178 5.92843764 2.53525178s5.4817273-1.09908973 5.9284376-2.53525178z" opacity=".3"/><path d="m15.3482135 3.66753404c-.824609-.41230451-2.0314698-.66753404-3.3482135-.66753404s-2.52360448.25522953-3.3482135.66753404c-.22562157.11281078-.40259964.22789432-.52658232.33246596.12398268.10457164.30096075.21965518.52658232.33246596.82460902.41230451 2.0314698.66753404 3.3482135.66753404s2.5236045-.25522953 3.3482135-.66753404c.2256216-.11281078.4025996-.22789432.5265823-.33246596-.1239827-.10457164-.3009607-.21965518-.5265823-.33246596z"/></g></g></svg>

<svg width="24px" height="24px" viewBox="0 0 24 24" version="1.1" xmlns="http://www.w3.org/2000/svg" xmlns:xlink="http://www.w3.org/1999/xlink">
    <title>Icon For Homepod</title>
    <g stroke="none" stroke-width="1" fill="none" fill-rule="evenodd">
        <rect opacity="0" x="0" y="0" width="24" height="24"></rect>
        <path d="M17.9284376,4.46474822 C19.1973992,5.56488124 20,7.18871188 20,9 L20,16 C20,19.3137085 17.3137085,22 14,22 L10,22 C6.6862915,22 4,19.3137085 4,16 L4,9 C4,7.18871188 4.80260084,5.56488124 6.07156236,4.46474822 C6.51827272,5.90091027 9.0024302,7 12,7 C14.9975698,7 17.4817273,5.90091027 17.9284376,4.46474822 Z" fill="#000000" opacity="0.3"></path>
        <path d="M15.3482135,3.66753404 C14.5236045,3.25522953 13.3167437,3 12,3 C10.6832563,3 9.47639552,3.25522953 8.6517865,3.66753404 C8.42616493,3.78034482 8.24918686,3.89542836 8.12520418,4 C8.24918686,4.10457164 8.42616493,4.21965518 8.6517865,4.33246596 C9.47639552,4.74477047 10.6832563,5 12,5 C13.3167437,5 14.5236045,4.74477047 15.3482135,4.33246596 C15.5738351,4.21965518 15.7508131,4.10457164 15.8747958,4 C15.7508131,3.89542836 15.5738351,3.78034482 15.3482135,3.66753404 Z" fill="#000000"></path>
    </g>
</svg>
